!!!OTL: Duimian tongzi kaibaihua
!!!ARE: Asia, China, Fujian ninghua
!! II, 589
!!!SCT: C2009
!!!YEM: Copyright 1995, estate of Helmut Schaffrath.
**kern
*ICvox
*Ivox
!! Mixed meters:  2/4; 3/4
*M3/4
*k[]
*C:
{8cc
16cc
16cc
8g
8cc
=1
8cc
8f
2cc}
=2
*M2/4
{8a
16a
16a
8cc
16a
16cc
=3
*M3/4
8cc
16a
16cc
2a}
=4
*M2/4
{8e
16a
16a
8e
8g
=5
8a
8a
16e
16g
8r
=6
4.r}
{8ee
16a
16cc
8a
8dd
=7
2cc
=8
8a
16cc
16dd
2a}
==
!!!AGN: Shange
!!!AMT: irregular
!!!AIN: vox
!!!EED: Helmut Schaffrath
!!!EEV: 1.0
*-
